X:684
T:Sweet Biddy Daly
T:A Health to the Ladies
T:Irish Man's Heart to the Ladies
R:jig
S:Jean-Pierre 'Groink' MARTIN <jean-pierre.martin23:LIBERTYSURF.FR> irtrad-l 2001-9-28
H:Played in G or in A
D:Kevin Burke: Up Close
M:6/8
L:1/8
K:G  %GRK:70230550
e|:dBG AGE|GED DEG|AcB AGA|BAA A2e|!
dBG AGE|GED DEG|AcB AGA|1 BGG G2e:|2 BGG G2A||!
Bdd cee|Bdd dBG|Bdd cee|dBG A2G|!
Bdd cee|Bdd dBG|AcB AGA|1 BGG G2A:|2 BGG G2|!
K:A
|f|:ecA BAF|AFE EFA|Bdc BAB|cBB B2f|!
ecA BAF|AFE EFA|Bdc BAB|1 cAA A2f:|2 cAA A2B||!
cee dff|cee ecA|cee dff|ecA B2A|!
cee dff|cee ecA|Bdc BAB|1 cAA A2B:|2 cAA A2||!
